Numix-Circle/48x48/apps/pokerth.svg

<?xml version="1.0" encoding="UTF-8" standalone="no"?>
<svg
   xmlns:dc="http://purl.org/dc/elements/1.1/"
   xmlns:cc="http://creativecommons.org/ns#"
   xmlns:rdf="http://www.w3.org/1999/02/22-rdf-syntax-ns#"
   xmlns:svg="http://www.w3.org/2000/svg"
   xmlns="http://www.w3.org/2000/svg"
   xmlns:xlink="http://www.w3.org/1999/xlink"
   xmlns:sodipodi="http://sodipodi.sourceforge.net/DTD/sodipodi-0.dtd"
   xmlns:inkscape="http://www.inkscape.org/namespaces/inkscape"
   viewBox="0 0 48 48"
   id="svg2"
   version="1.1"
   inkscape:version="0.91 r13725"
   width="100%"
   height="100%"
   sodipodi:docname="pokerth.svg">
  <metadata
     id="metadata65">
    <rdf:RDF>
      <cc:Work
         rdf:about="">
        <dc:format>image/svg+xml</dc:format>
        <dc:type
           rdf:resource="http://purl.org/dc/dcmitype/StillImage" />
        <dc:title />
      </cc:Work>
    </rdf:RDF>
  </metadata>
  <sodipodi:namedview
     pagecolor="#ffffff"
     bordercolor="#666666"
     borderopacity="1"
     objecttolerance="10"
     gridtolerance="10"
     guidetolerance="10"
     inkscape:pageopacity="0"
     inkscape:pageshadow="2"
     inkscape:window-width="1366"
     inkscape:window-height="713"
     id="namedview63"
     showgrid="false"
     inkscape:zoom="11.313708"
     inkscape:cx="16.944073"
     inkscape:cy="24.13807"
     inkscape:window-x="0"
     inkscape:window-y="28"
     inkscape:window-maximized="1"
     inkscape:current-layer="svg2"
     showguides="true"
     inkscape:guide-bbox="true">
    <inkscape:grid
       type="xygrid"
       id="grid3833" />
  </sodipodi:namedview>
  <defs
     id="defs4">
    <linearGradient
       id="linearGradient3892">
      <stop
         style="stop-color:#38b93a;stop-opacity:1;"
         offset="0"
         id="stop3894" />
      <stop
         style="stop-color:#3fc541;stop-opacity:1;"
         offset="1"
         id="stop3896" />
    </linearGradient>
    <linearGradient
       inkscape:collect="always"
       xlink:href="#linearGradient3892"
       id="linearGradient3898"
       x1="24"
       y1="47"
       x2="24"
       y2="1"
       gradientUnits="userSpaceOnUse" />
  </defs>
  <g
     id="g21">
    <path
       d="m 36.31 5 c 5.859 4.062 9.688 10.831 9.688 18.5 c 0 12.426 -10.07 22.5 -22.5 22.5 c -7.669 0 -14.438 -3.828 -18.5 -9.688 c 1.037 1.822 2.306 3.499 3.781 4.969 c 4.085 3.712 9.514 5.969 15.469 5.969 c 12.703 0 23 -10.298 23 -23 c 0 -5.954 -2.256 -11.384 -5.969 -15.469 c -1.469 -1.475 -3.147 -2.744 -4.969 -3.781 z m 4.969 3.781 c 3.854 4.113 6.219 9.637 6.219 15.719 c 0 12.703 -10.297 23 -23 23 c -6.081 0 -11.606 -2.364 -15.719 -6.219 c 4.16 4.144 9.883 6.719 16.219 6.719 c 12.703 0 23 -10.298 23 -23 c 0 -6.335 -2.575 -12.06 -6.719 -16.219 z"
       opacity="0.05"
       id="path23" />
    <path
       d="m 41.28 8.781 c 3.712 4.085 5.969 9.514 5.969 15.469 c 0 12.703 -10.297 23 -23 23 c -5.954 0 -11.384 -2.256 -15.469 -5.969 c 4.113 3.854 9.637 6.219 15.719 6.219 c 12.703 0 23 -10.298 23 -23 c 0 -6.081 -2.364 -11.606 -6.219 -15.719 z"
       opacity="0.1"
       id="path25" />
    <path
       d="m 31.25 2.375 c 8.615 3.154 14.75 11.417 14.75 21.13 c 0 12.426 -10.07 22.5 -22.5 22.5 c -9.708 0 -17.971 -6.135 -21.12 -14.75 a 23 23 0 0 0 44.875 -7 a 23 23 0 0 0 -16 -21.875 z"
       opacity="0.2"
       id="path27" />
  </g>
  <g
     id="g29">
    <path
       d="m 24 1 c 12.703 0 23 10.297 23 23 c 0 12.703 -10.297 23 -23 23 -12.703 0 -23 -10.297 -23 -23 0 -12.703 10.297 -23 23 -23 z"
       fill="url(#linearGradient3764)"
       fill-opacity="1"
       id="path31"
       style="fill:url(#linearGradient3898);fill-opacity:1.0" />
  </g>
  <g
     id="g33" />
  <g
     id="g59">
    <path
       d="m 40.03 7.531 c 3.712 4.084 5.969 9.514 5.969 15.469 0 12.703 -10.297 23 -23 23 c -5.954 0 -11.384 -2.256 -15.469 -5.969 4.178 4.291 10.01 6.969 16.469 6.969 c 12.703 0 23 -10.298 23 -23 0 -6.462 -2.677 -12.291 -6.969 -16.469 z"
       opacity="0.1"
       id="path61" />
  </g>
  <g
     id="g3880" />
  <g
     transform="scale(0.93032169,1.074897)"
     style="font-size:42.95858002px;font-style:normal;font-weight:normal;line-height:125%;letter-spacing:0px;word-spacing:0px;fill:#000000;fill-opacity:1;stroke:none;font-family:Sans"
     id="text3939" />
  <g
     id="g3011">
    <path
       sodipodi:type="arc"
       style="fill:#000000;fill-opacity:0.11764706;fill-rule:nonzero;stroke:none"
       id="path3937"
       sodipodi:cx="24"
       sodipodi:cy="20.5"
       sodipodi:rx="13"
       sodipodi:ry="8.5"
       d="m 37,20.5 a 13,8.5 0 1 1 -26,0 13,8.5 0 1 1 26,0 z"
       transform="matrix(1.1538462,0,0,1.7647059,-2.6923082,-11.176471)" />
    <g
       id="g3014">
      <path
         inkscape:connector-curvature="0"
         style="fill:#c12d25;fill-opacity:1;fill-rule:nonzero;stroke:none"
         d="m 24,9 c -2.036109,0 -3.979816,0.4213049 -5.75,1.15625 L 24,24 24,9 z M 24,24 34.59375,13.40625 C 33.213607,12.026107 31.58097,10.916432 29.75,10.15625 L 24,24 z m 0,0 15,0 c 0,-2.036109 -0.421305,-3.979816 -1.15625,-5.75 L 24,24 z m 0,0 10.59375,10.59375 c 1.380143,-1.380143 2.489818,-3.01278 3.25,-4.84375 L 24,24 z m 0,0 0,15 c 2.036109,0 3.979816,-0.421305 5.75,-1.15625 L 24,24 z m 0,0 -10.59375,10.59375 c 1.380143,1.380143 3.01278,2.489818 4.84375,3.25 L 24,24 z m 0,0 -15,0 c 0,2.036109 0.4213049,3.979816 1.15625,5.75 L 24,24 z m 0,0 -10.59375,-10.59375 c -1.380143,1.380143 -2.489818,3.01278 -3.25,4.84375 L 24,24 z"
         id="path3862" />
      <path
         inkscape:connector-curvature="0"
         style="fill:#e7dddd;fill-opacity:1;fill-rule:nonzero;stroke:none"
         d="m 24,9 0,3 c -1.632192,0 -3.175287,0.316031 -4.59375,0.90625 l -1.15625,-2.75 c -1.88112,0.779185 -3.520815,1.89358 -4.875,3.25 L 15.5,15.5 c -1.101949,1.101949 -1.985694,2.444921 -2.59375,3.90625 l -2.75,-1.125 C 9.4093216,20.084494 9.0016347,22.017496 9,24 l 3,0 c 0,1.632192 0.316031,3.175287 0.90625,4.59375 l -2.75,1.15625 c 0.779185,1.88112 1.89358,3.520815 3.25,4.875 L 15.5,32.5 c 1.101949,1.101949 2.444921,1.985694 3.90625,2.59375 l -1.125,2.75 C 20.084494,38.590678 22.017496,38.998365 24,39 l 0,-3 c 1.632192,0 3.175287,-0.316031 4.59375,-0.90625 l 1.15625,2.75 c 1.88112,-0.779185 3.520815,-1.89358 4.875,-3.25 L 32.5,32.5 c 1.101949,-1.101949 1.985694,-2.444921 2.59375,-3.90625 l 2.75,1.125 C 38.590678,27.915506 38.998365,25.982504 39,24 l -3,0 c 0,-1.632192 -0.316031,-3.175287 -0.90625,-4.59375 l 2.75,-1.15625 c -0.779185,-1.88112 -1.89358,-3.520815 -3.25,-4.875 L 32.5,15.5 c -1.101949,-1.101949 -2.444921,-1.985694 -3.90625,-2.59375 l 1.125,-2.75 C 27.915506,9.4093216 25.982504,9.0016347 24,9 z"
         id="path3977" />
      <path
         sodipodi:type="arc"
         style="fill:#c12d25;fill-opacity:1;fill-rule:nonzero;stroke:none"
         id="path4085"
         sodipodi:cx="22.6875"
         sodipodi:cy="22.375"
         sodipodi:rx="5.625"
         sodipodi:ry="5.8125"
         d="m 28.3125,22.375 c 0,3.210155 -2.518398,5.8125 -5.625,5.8125 -3.106602,0 -5.625,-2.602345 -5.625,-5.8125 0,-3.210155 2.518398,-5.8125 5.625,-5.8125 3.106602,0 5.625,2.602345 5.625,5.8125 z"
         transform="matrix(1.9555556,0,0,1.8924731,-20.366667,-18.344086)" />
    </g>
  </g>
</svg>

<svg xmlns="http://www.w3.org/2000/svg" viewBox="0 0 48 48">
 <defs>
  <linearGradient id="linearGradient3898" y1="47" x2="0" y2="1" gradientUnits="userSpaceOnUse">
   <stop style="stop-color:#38b93a;stop-opacity:1"/>
   <stop offset="1" style="stop-color:#3fc541;stop-opacity:1"/>
  </linearGradient>
 </defs>
 <g>
  <path d="m 36.31 5 c 5.859 4.062 9.688 10.831 9.688 18.5 c 0 12.426 -10.07 22.5 -22.5 22.5 c -7.669 0 -14.438 -3.828 -18.5 -9.688 c 1.037 1.822 2.306 3.499 3.781 4.969 c 4.085 3.712 9.514 5.969 15.469 5.969 c 12.703 0 23 -10.298 23 -23 c 0 -5.954 -2.256 -11.384 -5.969 -15.469 c -1.469 -1.475 -3.147 -2.744 -4.969 -3.781 z m 4.969 3.781 c 3.854 4.113 6.219 9.637 6.219 15.719 c 0 12.703 -10.297 23 -23 23 c -6.081 0 -11.606 -2.364 -15.719 -6.219 c 4.16 4.144 9.883 6.719 16.219 6.719 c 12.703 0 23 -10.298 23 -23 c 0 -6.335 -2.575 -12.06 -6.719 -16.219 z" style="opacity:0.05"/>
  <path d="m 41.28 8.781 c 3.712 4.085 5.969 9.514 5.969 15.469 c 0 12.703 -10.297 23 -23 23 c -5.954 0 -11.384 -2.256 -15.469 -5.969 c 4.113 3.854 9.637 6.219 15.719 6.219 c 12.703 0 23 -10.298 23 -23 c 0 -6.081 -2.364 -11.606 -6.219 -15.719 z" style="opacity:0.1"/>
  <path d="m 31.25 2.375 c 8.615 3.154 14.75 11.417 14.75 21.13 c 0 12.426 -10.07 22.5 -22.5 22.5 c -9.708 0 -17.971 -6.135 -21.12 -14.75 a 23 23 0 0 0 44.875 -7 a 23 23 0 0 0 -16 -21.875 z" style="opacity:0.2"/>
 </g>
 <g>
  <path d="m 24 1 c 12.703 0 23 10.297 23 23 c 0 12.703 -10.297 23 -23 23 -12.703 0 -23 -10.297 -23 -23 0 -12.703 10.297 -23 23 -23 z" style="fill:url(#linearGradient3898);fill-opacity:1"/>
 </g>
 <g>
  <path d="m 40.03 7.531 c 3.712 4.084 5.969 9.514 5.969 15.469 0 12.703 -10.297 23 -23 23 c -5.954 0 -11.384 -2.256 -15.469 -5.969 4.178 4.291 10.01 6.969 16.469 6.969 c 12.703 0 23 -10.298 23 -23 0 -6.462 -2.677 -12.291 -6.969 -16.469 z" style="opacity:0.1"/>
 </g>
 <g>
  <path d="m 37 20.5 a 13 8.5 0 1 1 -26 0 13 8.5 0 1 1 26 0 z" transform="matrix(1.1538462,0,0,1.7647059,-2.6923082,-11.176471)" style="fill:#000;fill-opacity:0.118;stroke:none;fill-rule:nonzero"/>
  <g>
   <path d="m 24 9 c -2.036 0 -3.98 0.421 -5.75 1.156 l 5.75 13.844 0 -15 z m 0 15 10.594 -10.594 c -1.38 -1.38 -3.01 -2.49 -4.844 -3.25 l -5.75 13.844 z m 0 0 15 0 c 0 -2.036 -0.421 -3.98 -1.156 -5.75 l -13.844 5.75 z m 0 0 10.594 10.594 c 1.38 -1.38 2.49 -3.01 3.25 -4.844 l -13.844 -5.75 z m 0 0 0 15 c 2.036 0 3.98 -0.421 5.75 -1.156 l -5.75 -13.844 z m 0 0 -10.594 10.594 c 1.38 1.38 3.01 2.49 4.844 3.25 l 5.75 -13.844 z m 0 0 -15 0 c 0 2.036 0.421 3.98 1.156 5.75 l 13.844 -5.75 z m 0 0 -10.594 -10.594 c -1.38 1.38 -2.49 3.01 -3.25 4.844 l 13.844 5.75 z" style="fill:#c12d25;fill-opacity:1;stroke:none;fill-rule:nonzero"/>
   <path d="m 24 9 0 3 c -1.632 0 -3.175 0.316 -4.594 0.906 l -1.156 -2.75 c -1.881 0.779 -3.521 1.894 -4.875 3.25 l 2.125 2.094 c -1.102 1.102 -1.986 2.445 -2.594 3.906 l -2.75 -1.125 c -0.747 1.803 -1.155 3.736 -1.156 5.719 l 3 0 c 0 1.632 0.316 3.175 0.906 4.594 l -2.75 1.156 c 0.779 1.881 1.894 3.521 3.25 4.875 l 2.094 -2.125 c 1.102 1.102 2.445 1.986 3.906 2.594 l -1.125 2.75 c 1.803 0.747 3.736 1.155 5.719 1.156 l 0 -3 c 1.632 0 3.175 -0.316 4.594 -0.906 l 1.156 2.75 c 1.881 -0.779 3.521 -1.894 4.875 -3.25 l -2.125 -2.094 c 1.102 -1.102 1.986 -2.445 2.594 -3.906 l 2.75 1.125 c 0.747 -1.803 1.155 -3.736 1.156 -5.719 l -3 0 c 0 -1.632 -0.316 -3.175 -0.906 -4.594 l 2.75 -1.156 c -0.779 -1.881 -1.894 -3.521 -3.25 -4.875 l -2.094 2.125 c -1.102 -1.102 -2.445 -1.986 -3.906 -2.594 l 1.125 -2.75 c -1.803 -0.747 -3.736 -1.155 -5.719 -1.156 z" style="fill:#e7dddd;fill-opacity:1;stroke:none;fill-rule:nonzero"/>
   <path d="m 28.313 22.375 c 0 3.21 -2.518 5.813 -5.625 5.813 -3.107 0 -5.625 -2.602 -5.625 -5.813 0 -3.21 2.518 -5.813 5.625 -5.813 3.107 0 5.625 2.602 5.625 5.813 z" transform="matrix(1.9555556,0,0,1.8924731,-20.366667,-18.344086)" style="fill:#c12d25;fill-opacity:1;stroke:none;fill-rule:nonzero"/>
  </g>
 </g>
</svg>
